icons/yii/yii-original-wordmark.svg

<svg xmlns="http://www.w3.org/2000/svg" viewBox="0 0 128 128"><g fill="none"><path fill="#40B3D8" d="M46.4522 74.0708C45.9313 67.1947 43.7134 62.7376 42.6334 60.2113C41.554 57.6857 39.8942 55.3213 39.8931 55.3252C39.8899 55.3359 38.3987 63.3716 35.7177 69.1855C35.2702 70.1564 34.6758 71.3688 34.076 72.345C32.2251 75.613 29.5394 78.7394 27.9388 81.9082C26.3517 85.0489 26.0571 88.1593 26.2048 91.6954C26.3534 95.2511 27.175 98.7387 27.9637 102.196C30.9368 101.554 33.5244 100.457 35.763 99.0536C41.6539 95.3602 45.2135 89.4533 46.2251 83.0892C46.2251 83.0892 46.2743 82.8307 46.2964 82.5155C46.7525 77.597 46.6016 76.0452 46.4522 74.0708Z"/><path fill="#83C933" d="M46.4523 74.0708C45.9313 67.1947 43.7135 62.7376 42.6334 60.2113C41.5541 57.6857 39.8942 55.3213 39.8932 55.3252L39.8928 55.327C39.8928 55.3259 39.8932 55.3249 39.8932 55.3249L39.497 54.7358C30.8095 42.5408 14.1488 36.452 0.0721192 42.0954C-0.605721 50.6435 3.3572 65.3509 17.815 69.4533C23.6599 71.2514 28.3403 70.785 34.0764 72.3447C34.0761 72.3447 34.0761 72.345 34.0761 72.345C34.0761 72.345 39.9067 74.3771 43.2988 77.4244C44.8245 78.7947 46.3524 80.5982 46.2758 82.7433C46.7589 77.6383 46.6042 76.0765 46.4523 74.0708Z"/><path fill="#40B3D8" d="M124.463 39.5613C126.453 39.5613 128 41.1091 128 43.0992C128 45.0885 126.453 46.6367 124.463 46.6367C122.473 46.6367 120.925 45.0885 120.925 43.0992C120.925 41.3299 122.472 39.5613 124.463 39.5613ZM111.639 39.5613C113.628 39.5613 115.177 41.1091 115.177 43.0992C115.177 45.0885 113.629 46.6367 111.639 46.6367C109.65 46.6367 108.101 45.0885 108.101 43.0992C108.101 41.3299 109.65 39.5613 111.639 39.5613ZM115.177 82.8952V49.9528C115.177 49.2903 114.734 48.8474 114.071 48.8474H109.207C108.544 48.8474 108.102 49.2903 108.102 49.9528V82.8952C108.102 83.5585 108.544 84.0006 109.207 84.0006H114.071C114.734 83.7792 115.177 83.3381 115.177 82.8952ZM102.574 83.7792V49.0685C99.9215 49.0685 95.72 50.8371 95.72 54.5957V78.252C94.1732 78.4734 91.9614 78.6952 90.636 78.6952C86.2132 78.6952 85.1089 75.5991 85.1089 71.3983V54.3739C84.8874 50.1735 80.2442 49.0681 78.2549 49.0681V71.1776C78.2549 79.1359 82.2345 84.2213 90.636 84.2213C91.9614 84.2213 94.6157 83.7785 95.72 83.5578L95.7785 84.1311C96.0844 91.0176 88.4242 88.2014 84.0031 87.7585C80.6863 87.7585 78.4759 90.4117 77.8116 93.5071C79.8017 94.1703 85.9928 94.8339 90.4143 95.2757C98.3743 95.4971 102.574 91.076 102.574 83.7792ZM127.779 82.8952V49.9528C127.779 49.2903 127.337 48.8474 126.674 48.8474H121.81C121.147 48.8474 120.704 49.2903 120.704 49.9528V82.8952C120.704 83.5585 121.147 84.0006 121.81 84.0006H126.674C127.337 83.7792 127.779 83.3381 127.779 82.8952Z"/><path fill="#F18A2A" fill-rule="evenodd" d="M40.1387 48.1689C38.0845 42.1589 38.9549 38.1318 42.7131 32.5275C44.5056 29.8536 47.6003 26.7522 50.3127 25C61.2562 31.8576 65.3025 44.6306 61.2779 56.4933C58.3491 65.1248 55.601 68.744 48.6525 77.6248C49.4623 68.1136 46.1148 61.5196 42.8283 54.1928C41.9918 52.3286 40.835 50.2067 40.1387 48.1689Z" clip-rule="evenodd"/><path fill="#7FB93C" d="M46.276 82.7433C46.3527 80.5982 44.8248 78.7947 43.299 77.4244C39.9069 74.3771 34.0767 72.345 34.0767 72.345C34.6764 71.3687 35.2708 70.1564 35.7183 69.1855C38.3994 63.3716 39.8905 55.3359 39.8937 55.3252C39.8948 55.3217 41.5543 57.6857 42.634 60.2113C43.714 62.7376 45.9315 67.1944 46.4529 74.0708C46.6044 76.0765 46.7591 77.6383 46.276 82.7433Z"/></g></svg>

<svg xmlns="http://www.w3.org/2000/svg" viewBox="0 0 128 128"><path fill="#40B3D8" d="M46.452 74.07c-.52-6.875-2.739-11.332-3.819-13.859-1.079-2.525-2.739-4.89-2.74-4.886-.003.01-1.494 8.047-4.175 13.86-.448.971-1.042 2.184-1.642 3.16-1.85 3.268-4.537 6.394-6.137 9.563-1.587 3.14-1.882 6.251-1.734 9.787.148 3.556.97 7.044 1.759 10.501 2.973-.642 5.56-1.739 7.799-3.142 5.89-3.694 9.45-9.6 10.462-15.965 0 0 .05-.258.071-.573.456-4.919.306-6.47.156-8.445Z"/><path fill="#83C933" d="M46.452 74.07c-.52-6.875-2.738-11.332-3.819-13.859-1.079-2.525-2.739-4.89-2.74-4.886v.002-.002l-.396-.59C30.809 42.542 14.149 36.453.072 42.096c-.678 8.549 3.285 23.256 17.743 27.358 5.845 1.798 10.525 1.332 16.261 2.892 0 0 5.83 2.032 9.223 5.08 1.526 1.37 3.053 3.173 2.977 5.318.483-5.105.328-6.666.176-8.672Z"/><path fill="#40B3D8" d="M124.463 39.561c1.99 0 3.537 1.548 3.537 3.538 0 1.99-1.547 3.538-3.537 3.538s-3.538-1.548-3.538-3.538c0-1.77 1.547-3.538 3.538-3.538Zm-12.824 0c1.989 0 3.538 1.548 3.538 3.538 0 1.99-1.548 3.538-3.538 3.538-1.989 0-3.538-1.548-3.538-3.538 0-1.77 1.549-3.538 3.538-3.538Zm3.538 43.334V49.953c0-.663-.443-1.106-1.106-1.106h-4.864c-.663 0-1.105.443-1.105 1.106v32.942c0 .663.442 1.106 1.105 1.106h4.864c.663-.222 1.106-.663 1.106-1.106Zm-12.603.884V49.07c-2.653 0-6.854 1.768-6.854 5.527v23.656c-1.547.221-3.759.443-5.084.443-4.423 0-5.527-3.096-5.527-7.297V54.374c-.222-4.2-4.865-5.306-6.854-5.306v22.11c0 7.958 3.98 13.043 12.381 13.043 1.325 0 3.98-.443 5.084-.663l.058.573c.306 6.887-7.354 4.07-11.775 3.627-3.317 0-5.527 2.654-6.191 5.75 1.99.662 8.18 1.326 12.602 1.768 7.96.221 12.16-4.2 12.16-11.497Zm25.205-.884V49.953c0-.663-.442-1.106-1.105-1.106h-4.864c-.663 0-1.106.443-1.106 1.106v32.942c0 .663.443 1.106 1.106 1.106h4.864c.663-.222 1.105-.663 1.105-1.106Z"/><path fill="#F18A2A" d="M40.139 48.169c-2.055-6.01-1.184-10.037 2.574-15.641 1.793-2.674 4.887-5.776 7.6-7.528 10.943 6.858 14.99 19.63 10.965 31.493-2.929 8.632-5.677 12.251-12.625 21.132.81-9.511-2.538-16.105-5.825-23.432-.836-1.864-1.993-3.986-2.69-6.024Z"/><path fill="#7FB93C" d="M46.276 82.743c.077-2.145-1.451-3.948-2.977-5.319-3.392-3.047-9.222-5.079-9.222-5.079.6-.976 1.194-2.189 1.641-3.16 2.681-5.813 4.172-13.85 4.176-13.86 0-.003 1.66 2.36 2.74 4.886 1.08 2.527 3.297 6.983 3.819 13.86.151 2.005.306 3.567-.177 8.672Z"/></svg>
